packages/twenty-docs/static/img/logo-square-light.svg

<svg fill="none" height="136" viewBox="0 0 136 136" width="136" xmlns="http://www.w3.org/2000/svg" xmlns:xlink="http://www.w3.org/1999/xlink"><clipPath id="a"><rect height="136" rx="18" width="136"/></clipPath><g clip-path="url(#a)"><rect fill="#000" height="136" rx="18" width="136"/><path d="m118.83 0h-101.66c-9.48 0-17.17 7.69-17.17 17.17v101.66c0 9.48 7.69 17.17 17.17 17.17h101.66c9.48 0 17.17-7.69 17.17-17.17v-101.66c0-9.48-7.69-17.17-17.17-17.17zm-91.56 50.64c0-7.43 6.03-13.46 13.46-13.46h25.91c.38 0 .73.23.89.58s.09.76-.17 1.05l-5.68 6.17c-.99 1.07-2.38 1.69-3.84 1.69h-17.04c-2.23 0-4.04 1.81-4.04 4.04v10.18c0 1.31-1.06 2.37-2.37 2.37h-4.74c-1.31 0-2.37-1.06-2.37-2.37v-10.25zm80.61 34.72c0 7.43-6.03 13.46-13.46 13.46h-11.01c-7.43 0-13.46-6.03-13.46-13.46v-19.27c0-1.31.49-2.57 1.38-3.54l6.42-6.97c.27-.29.69-.39 1.07-.25.37.15.62.5.62.9v29.07c0 2.23 1.81 4.04 4.04 4.04h10.88c2.23 0 4.04-1.81 4.04-4.04v-34.59c0-2.23-1.81-4.04-4.04-4.04h-12.65c-1.45 0-2.83.61-3.82 1.67l-37.73 41h22.67c1.31 0 2.37 1.06 2.37 2.37v4.74c0 1.31-1.06 2.37-2.37 2.37h-30.55c-2.77 0-5.02-2.25-5.02-5.02v-2.51c0-1.26.47-2.47 1.33-3.4l42.3-45.95c2.8-3.04 6.73-4.76 10.86-4.76h12.66c7.43 0 13.46 6.03 13.46 13.46v34.72z" fill="#fff"/></g></svg>

<svg width="136" height="136" viewBox="0 0 136 136" fill="none" xmlns="http://www.w3.org/2000/svg">
<g clip-path="url(#clip0_2343_96409)">
<rect width="136" height="136" rx="18" fill="black"/>
<path d="M118.83 0H17.17C7.69 0 0 7.69 0 17.17V118.83C0 128.31 7.69 136 17.17 136H118.83C128.31 136 136 128.31 136 118.83V17.17C136 7.69 128.31 0 118.83 0ZM27.27 50.64C27.27 43.21 33.3 37.18 40.73 37.18H66.64C67.02 37.18 67.37 37.41 67.53 37.76C67.69 38.11 67.62 38.52 67.36 38.81L61.68 44.98C60.69 46.05 59.3 46.67 57.84 46.67H40.8C38.57 46.67 36.76 48.48 36.76 50.71V60.89C36.76 62.2 35.7 63.26 34.39 63.26H29.65C28.34 63.26 27.28 62.2 27.28 60.89V50.64H27.27ZM107.88 85.36C107.88 92.79 101.85 98.82 94.42 98.82H83.41C75.98 98.82 69.95 92.79 69.95 85.36V66.09C69.95 64.78 70.44 63.52 71.33 62.55L77.75 55.58C78.02 55.29 78.44 55.19 78.82 55.33C79.19 55.48 79.44 55.83 79.44 56.23V85.3C79.44 87.53 81.25 89.34 83.48 89.34H94.36C96.59 89.34 98.4 87.53 98.4 85.3V50.71C98.4 48.48 96.59 46.67 94.36 46.67H81.71C80.26 46.67 78.88 47.28 77.89 48.34L40.16 89.34H62.83C64.14 89.34 65.2 90.4 65.2 91.71V96.45C65.2 97.76 64.14 98.82 62.83 98.82H32.28C29.51 98.82 27.26 96.57 27.26 93.8V91.29C27.26 90.03 27.73 88.82 28.59 87.89L70.89 41.94C73.69 38.9 77.62 37.18 81.75 37.18H94.41C101.84 37.18 107.87 43.21 107.87 50.64V85.36H107.88Z" fill="white"/>
</g>
<defs>
<clipPath id="clip0_2343_96409">
<rect width="136" height="136" rx="18" fill="white"/>
</clipPath>
</defs>
</svg>
